docs/img/instagram.svg

<svg width="17" height="16" viewBox="0 0 17 16" fill="none" xmlns="http://www.w3.org/2000/svg">
<path d="M5.75063 8C5.75063 6.61934 6.92556 5.4998 8.37532 5.4998C9.82507 5.4998 11.0006 6.61934 11.0006 8C11.0006 9.38066 9.82507 10.5002 8.37532 10.5002C6.92556 10.5002 5.75063 9.38066 5.75063 8ZM4.33144 8C4.33144 10.127 6.14188 11.8512 8.37532 11.8512C10.6088 11.8512 12.4192 10.127 12.4192 8C12.4192 5.873 10.6088 4.14884 8.37532 4.14884C6.14188 4.14884 4.33144 5.873 4.33144 8ZM11.6342 3.99614C11.6342 4.17414 11.6895 4.34817 11.7933 4.49621C11.8971 4.64426 12.0446 4.75967 12.2173 4.82785C12.3899 4.89604 12.5799 4.91393 12.7633 4.87928C12.9466 4.84462 13.115 4.75897 13.2473 4.63315C13.3795 4.50733 13.4696 4.347 13.5061 4.17243C13.5426 3.99787 13.524 3.8169 13.4525 3.65242C13.3811 3.48794 13.26 3.34733 13.1046 3.24838C12.9493 3.14943 12.7666 3.09657 12.5797 3.0965H12.5793C12.3287 3.09661 12.0885 3.19142 11.9113 3.3601C11.7341 3.52878 11.6345 3.75754 11.6342 3.99614ZM5.19369 14.1048C4.42588 14.0715 4.00855 13.9497 3.73121 13.8468C3.36353 13.7105 3.10119 13.5481 2.82536 13.2858C2.54954 13.0235 2.3788 12.7739 2.23629 12.4237C2.12817 12.1597 2.00028 11.7622 1.96538 11.031C1.9272 10.2404 1.91957 10.0029 1.91957 8.00006C1.91957 5.9972 1.92783 5.76038 1.96538 4.96916C2.00034 4.23794 2.12918 3.84116 2.23629 3.57638C2.37943 3.22622 2.54991 2.97638 2.82536 2.7137C3.10081 2.45102 3.3629 2.28842 3.73121 2.1527C4.00842 2.04974 4.42588 1.92794 5.19369 1.8947C6.02381 1.85834 6.27317 1.85108 8.37532 1.85108C10.4775 1.85108 10.7271 1.85894 11.5579 1.8947C12.3257 1.928 12.7423 2.0507 13.0204 2.1527C13.388 2.28842 13.6504 2.45138 13.9262 2.7137C14.202 2.97602 14.3721 3.22622 14.5153 3.57638C14.6234 3.84038 14.7513 4.23794 14.7862 4.96916C14.8244 5.76038 14.832 5.9972 14.832 8.00006C14.832 10.0029 14.8244 10.2397 14.7862 11.031C14.7512 11.7622 14.6227 12.1596 14.5153 12.4237C14.3721 12.7739 14.2017 13.0237 13.9262 13.2858C13.6508 13.5479 13.388 13.7105 13.0204 13.8468C12.7432 13.9498 12.3257 14.0716 11.5579 14.1048C10.7278 14.1412 10.4784 14.1484 8.37532 14.1484C6.27223 14.1484 6.02356 14.1412 5.19369 14.1048ZM5.12848 0.54542C4.29011 0.58178 3.71722 0.70838 3.21692 0.89378C2.69879 1.08524 2.26016 1.3421 1.82186 1.75886C1.38355 2.17562 1.11453 2.594 0.913486 3.08744C0.718808 3.5642 0.585872 4.10948 0.547693 4.9079C0.508883 5.70758 0.5 5.96324 0.5 8C0.5 10.0368 0.508883 10.2924 0.547693 11.0921C0.585872 11.8906 0.718808 12.4358 0.913486 12.9126C1.11453 13.4057 1.38361 13.8246 1.82186 14.2411C2.2601 14.6577 2.69879 14.9142 3.21692 15.1062C3.71817 15.2916 4.29011 15.4182 5.12848 15.4546C5.96862 15.4909 6.23663 15.5 8.37532 15.5C10.514 15.5 10.7825 15.4915 11.6222 15.4546C12.4606 15.4182 13.0331 15.2916 13.5337 15.1062C14.0515 14.9142 14.4905 14.6579 14.9288 14.2411C15.3671 13.8244 15.6355 13.4057 15.8371 12.9126C16.0318 12.4358 16.1654 11.8905 16.2029 11.0921C16.2411 10.2918 16.25 10.0368 16.25 8C16.25 5.96324 16.2411 5.70758 16.2029 4.9079C16.1648 4.10942 16.0318 3.5639 15.8371 3.08744C15.6355 2.5943 15.3664 2.17628 14.9288 1.75886C14.4912 1.34144 14.0515 1.08524 13.5343 0.89378C13.0331 0.70838 12.4605 0.58118 11.6228 0.54542C10.7831 0.50906 10.5146 0.5 8.37595 0.5C6.23726 0.5 5.96862 0.50846 5.12848 0.54542Z" fill="#222222"/>
</svg>

<svg width="17" height="16" fill="none" xmlns="http://www.w3.org/2000/svg"><path d="M5.75 8c0-1.38 1.176-2.5 2.625-2.5 1.45 0 2.626 1.12 2.626 2.5s-1.176 2.5-2.626 2.5S5.751 9.38 5.751 8ZM4.332 8c0 2.127 1.81 3.851 4.044 3.851 2.234 0 4.044-1.724 4.044-3.851s-1.81-3.851-4.044-3.851C6.142 4.149 4.331 5.873 4.331 8Zm7.303-4.004a.87.87 0 0 0 .16.5.936.936 0 0 0 .423.332.989.989 0 0 0 .546.051.961.961 0 0 0 .484-.246.887.887 0 0 0 .26-.46.86.86 0 0 0-.054-.52.91.91 0 0 0-.348-.405.979.979 0 0 0-.525-.152.97.97 0 0 0-.669.264.88.88 0 0 0-.277.636Zm-6.44 10.109c-.768-.034-1.185-.155-1.463-.258a2.463 2.463 0 0 1-.906-.561 2.306 2.306 0 0 1-.589-.862c-.108-.264-.236-.662-.27-1.393-.039-.79-.046-1.028-.046-3.03 0-2.004.008-2.24.045-3.032.035-.731.164-1.128.271-1.393.143-.35.314-.6.59-.862.275-.263.537-.426.905-.561.277-.103.695-.225 1.463-.258.83-.037 1.08-.044 3.181-.044 2.102 0 2.352.008 3.183.044.768.033 1.184.156 1.462.258.368.135.63.298.906.56.276.263.446.513.59.863.107.264.235.662.27 1.393.038.791.046 1.028.046 3.031s-.008 2.24-.046 3.031c-.035.731-.163 1.129-.27 1.393-.144.35-.314.6-.59.862a2.462 2.462 0 0 1-.906.56c-.277.104-.694.226-1.462.259-.83.036-1.08.043-3.183.043-2.103 0-2.351-.007-3.181-.043ZM5.128.545c-.838.037-1.41.163-1.911.349a3.888 3.888 0 0 0-1.395.865 3.652 3.652 0 0 0-.909 1.328C.72 3.564.586 4.11.548 4.907.508 5.708.5 5.964.5 8s.009 2.292.048 3.092c.038.799.17 1.344.365 1.82.202.494.47.913.909 1.33a3.9 3.9 0 0 0 1.395.864c.501.186 1.073.312 1.911.349.84.036 1.109.045 3.247.045 2.139 0 2.408-.008 3.247-.045s1.411-.163 1.912-.349a3.898 3.898 0 0 0 1.395-.865 3.66 3.66 0 0 0 .908-1.328c.195-.477.328-1.023.366-1.82.038-.801.047-1.056.047-3.093s-.009-2.292-.047-3.092c-.038-.799-.171-1.344-.366-1.82a3.675 3.675 0 0 0-.908-1.33 3.878 3.878 0 0 0-1.395-.864c-.5-.186-1.074-.313-1.911-.349C10.783.51 10.515.5 8.376.5S5.969.508 5.128.545Z" fill="#222"/></svg>
